;FLAVOR:UltiGCode
;TIME:356
;MATERIAL:195
;MATERIAL2:0
;NOZZLE_DIAMETER:0.4
;Generated with Cura_SteamEngine 2.3.0

;LAYER_COUNT:65
;LAYER:0

G21 ;metric values
G90 ;absolute positioning
M82 ;set extruder to absolute mode
M107 ;start with the fan off
M190 S75 ;Heat up bed 
M109 S242 ;Heat up extruder
G28; Home Axis
G29; Z-Probe the bed (requires Z-Probe!)
M220 40 ;Set Travel Speed
G1 Z5.0 F9000 ;move the bed up
;G1 Z0. ; move nozzle close to bed
G1 F12000 X5 Y10 ;Move To Left Bottom
G1 X100 Y0 F4000 E15 ; move half way along the front edge


M107
G10
G0 F4500 X105.777 Y106.988 Z.3
;TYPE:SKIRT
G11
G1 F1800 X106.321 Y106.473 E0.08989
G1 X106.477 Y106.344 E0.11418
G1 X107.017 Y105.95 E0.1944
G1 X107.601 Y105.622 E0.27478
G1 X108.219 Y105.366 E0.35505
G1 X109.032 Y105.153 E0.4559
G1 X109.597 Y105.049 E0.52484
G1 X110.592 Y104.956 E0.64476
G1 X112.393 Y104.95 E0.86088
G1 X113.061 Y104.988 E0.94117
G1 X113.712 Y105.103 E1.0205
G1 X114.328 Y105.25 E1.09649
G1 X114.968 Y105.444 E1.17675
G1 X115.581 Y105.713 E1.25708
G1 X116.157 Y106.053 E1.33734
G1 X116.689 Y106.459 E1.41765
G1 X117.168 Y106.926 E1.49792
G1 X117.588 Y107.446 E1.57814
G1 X117.943 Y108.013 E1.65841
G1 X118.158 Y108.451 E1.71696
G1 X118.334 Y108.853 E1.76962
G1 X118.565 Y109.481 E1.84992
G1 X118.72 Y110.132 E1.93022
G1 X118.8 Y110.895 E2.02229
G1 X118.82 Y111.443 E2.08809
G1 X118.805 Y112.112 E2.16839
G1 X118.709 Y112.774 E2.24866
G1 X118.619 Y113.148 E2.29482
G1 X118.488 Y113.619 E2.35349
G1 X118.271 Y114.251 E2.43367
G1 X117.979 Y114.854 E2.51407
G1 X117.618 Y115.417 E2.59433
G1 X117.193 Y115.933 E2.67455
G1 X116.708 Y116.395 E2.75492
G1 X116.173 Y116.795 E2.83508
G1 X115.424 Y117.21 E2.93784
G1 X115.092 Y117.362 E2.98166
G1 X114.468 Y117.603 E3.06193
G1 X113.82 Y117.769 E3.1422
G1 X112.927 Y117.868 E3.25001
G1 X110.837 Y117.93 E3.50092
G1 X110.168 Y117.909 E3.58124
G1 X109.323 Y117.767 E3.68407
G1 X108.577 Y117.582 E3.7763
G1 X107.939 Y117.383 E3.85649
G1 X107.328 Y117.109 E3.93685
G1 X106.755 Y116.763 E4.01717
G1 X106.227 Y116.353 E4.09739
G1 X105.752 Y115.882 E4.17766
G1 X105.336 Y115.357 E4.25804
G1 X104.986 Y114.787 E4.33831
G1 X104.707 Y114.179 E4.41858
G1 X104.531 Y113.653 E4.48514
G1 X104.376 Y113.098 E4.55429
G1 X104.235 Y112.444 E4.63458
G1 X104.173 Y111.778 E4.71484
G1 X104.191 Y111.109 E4.79515
G1 X104.232 Y110.764 E4.83684
G1 X104.352 Y109.961 E4.93427
G1 X104.49 Y109.307 E5.01448
G1 X104.705 Y108.673 E5.09482
G1 X104.994 Y108.07 E5.17506
G1 X105.354 Y107.506 E5.25535
G1 X105.777 Y106.988 E5.3356
G0 F4500 X106.152 Y107.174
G1 F1800 X106.576 Y106.782 E5.40489
G1 X106.732 Y106.653 E5.42919
G1 X107.254 Y106.273 E5.50667
G1 X107.818 Y105.962 E5.58395
G1 X108.416 Y105.722 E5.66128
G1 X109.105 Y105.546 E5.74661
G1 X109.67 Y105.442 E5.81555
G1 X110.594 Y105.356 E5.92691
G1 X112.395 Y105.35 E6.14303
G1 X113.038 Y105.388 E6.22033
G1 X113.619 Y105.492 E6.29115
G1 X114.235 Y105.639 E6.36715
G1 X114.852 Y105.827 E6.44455
G1 X115.44 Y106.09 E6.52185
G1 X115.992 Y106.424 E6.59927
G1 X116.498 Y106.824 E6.67667
G1 X116.95 Y107.283 E6.75397
G1 X117.342 Y107.794 E6.83126
G1 X117.791 Y108.611 E6.94313
G1 X117.967 Y109.013 E6.99579
G1 X118.189 Y109.619 E7.07323
G1 X118.334 Y110.247 E7.15058
G1 X118.401 Y110.909 E7.23042
G1 X118.421 Y111.457 E7.29623
G1 X118.404 Y112.102 E7.37365
G1 X118.234 Y113.04 E7.48805
G1 X118.103 Y113.511 E7.54671
G1 X117.892 Y114.121 E7.62417
G1 X117.607 Y114.699 E7.7015
G1 X117.253 Y115.238 E7.77888
G1 X116.835 Y115.729 E7.85626
G1 X116.36 Y116.164 E7.93355
G1 X115.834 Y116.537 E8.01093
G1 X115.258 Y116.846 E8.08937
G1 X114.926 Y116.998 E8.13319
G1 X114.324 Y117.23 E8.21061
G1 X113.698 Y117.385 E8.288
G1 X112.915 Y117.468 E8.38248
G1 X110.825 Y117.53 E8.63339
G1 X110.181 Y117.509 E8.71071
G1 X109.419 Y117.379 E8.80347
G1 X108.673 Y117.194 E8.89571
G1 X108.058 Y117 E8.97309
G1 X107.472 Y116.732 E9.05042
G1 X106.924 Y116.393 E9.12774
G1 X106.421 Y115.989 E9.20516
G1 X105.973 Y115.526 E9.28247
G1 X105.585 Y115.011 E9.35985
G1 X105.264 Y114.452 E9.4372
G1 X105.015 Y113.858 E9.51449
G1 X104.917 Y113.546 E9.55373
G1 X104.762 Y112.991 E9.62288
G1 X104.627 Y112.36 E9.70032
G1 X104.572 Y111.718 E9.77764
G1 X104.627 Y110.823 E9.88524
G1 X104.747 Y110.02 E9.98267
G1 X104.882 Y109.39 E10.05999
G1 X105.093 Y108.781 E10.13733
G1 X105.379 Y108.203 E10.21472
G1 X105.733 Y107.665 E10.292
G1 X106.152 Y107.174 E10.36946
G0 F4500 X106.831 Y107.09
G1 F1800 X106.987 Y106.961 E10.39375
G1 X107.489 Y106.598 E10.46809
G1 X108.033 Y106.302 E10.5424
G1 X108.611 Y106.079 E10.61675
G1 X109.177 Y105.939 E10.68671
G1 X109.742 Y105.835 E10.75565
G1 X110.595 Y105.756 E10.85845
G1 X112.396 Y105.75 E11.07457
G1 X113.014 Y105.788 E11.14887
G1 X113.526 Y105.881 E11.21132
G1 X114.142 Y106.028 E11.28731
G1 X114.734 Y106.21 E11.36163
G1 X115.298 Y106.467 E11.43601
G1 X115.823 Y106.795 E11.51029
G1 X116.302 Y107.187 E11.58457
G1 X116.727 Y107.638 E11.65893
G1 X117.09 Y108.14 E11.73327
G1 X117.425 Y108.772 E11.81911
G1 X117.601 Y109.174 E11.87177
G1 X117.812 Y109.756 E11.94606
G1 X117.947 Y110.361 E12.02044
G1 X118.001 Y110.924 E12.08831
G1 X118.021 Y111.472 E12.15412
G1 X118.003 Y112.091 E12.22843
G1 X117.848 Y112.933 E12.33117
G1 X117.717 Y113.404 E12.38983
G1 X117.513 Y113.989 E12.46418
G1 X117.236 Y114.543 E12.5385
G1 X116.889 Y115.056 E12.61282
G1 X116.479 Y115.52 E12.68713
G1 X116.013 Y115.928 E12.76145
G1 X115.498 Y116.272 E12.83577
G1 X115.091 Y116.482 E12.89073
G1 X114.759 Y116.634 E12.93454
G1 X114.181 Y116.855 E13.0088
G1 X113.578 Y117 E13.08322
G1 X112.903 Y117.068 E13.16463
G1 X110.813 Y117.13 E13.41554
G1 X110.194 Y117.108 E13.48987
G1 X109.516 Y116.991 E13.57243
G1 X108.77 Y116.806 E13.66467
G1 X108.179 Y116.618 E13.73909
G1 X107.618 Y116.356 E13.81339
G1 X107.095 Y116.024 E13.88772
G1 X106.62 Y115.628 E13.96194
G1 X106.199 Y115.173 E14.03632
G1 X105.84 Y114.668 E14.11067
G1 X105.55 Y114.121 E14.18497
G1 X105.302 Y113.438 E14.27216
G1 X105.147 Y112.883 E14.34131
G1 X105.019 Y112.277 E14.41564
G1 X104.97 Y111.66 E14.48991
G1 X105.023 Y110.883 E14.58337
G1 X105.143 Y110.08 E14.6808
G1 X105.274 Y109.474 E14.7552
G1 X105.481 Y108.891 E14.82944
G1 X105.762 Y108.339 E14.90376
G1 X106.112 Y107.828 E14.97809
G1 X106.525 Y107.366 E15.05245
G1 X106.831 Y107.09 E15.1019
G0 F4500 X107.242 Y107.269
G1 F1800 X107.723 Y106.923 E15.173
G1 X108.247 Y106.645 E15.24419
G1 X108.803 Y106.439 E15.31534
G1 X109.249 Y106.333 E15.37035
G1 X109.814 Y106.229 E15.43929
G1 X110.596 Y106.156 E15.53354
G1 X112.397 Y106.15 E15.74966
G1 X112.989 Y106.188 E15.82084
G1 X113.433 Y106.27 E15.87502
G1 X114.049 Y106.417 E15.95102
G1 X114.616 Y106.593 E16.02226
G1 X115.153 Y106.844 E16.09339
G1 X115.652 Y107.165 E16.16459
G1 X116.103 Y107.55 E16.23575
G1 X116.498 Y107.992 E16.30688
G1 X116.83 Y108.483 E16.37801
G1 X117.059 Y108.932 E16.43849
G1 X117.235 Y109.334 E16.49115
G1 X117.435 Y109.892 E16.56228
G1 X117.559 Y110.472 E16.63346
G1 X117.601 Y110.939 E16.68972
G1 X117.621 Y111.487 E16.75553
G1 X117.603 Y112.079 E16.8266
G1 X117.463 Y112.826 E16.9178
G1 X117.332 Y113.297 E16.97647
G1 X117.135 Y113.856 E17.04759
G1 X116.865 Y114.384 E17.11875
G1 X116.526 Y114.871 E17.18996
G1 X116.124 Y115.307 E17.26112
G1 X115.668 Y115.686 E17.33228
G1 X114.925 Y116.119 E17.43547
G1 X114.593 Y116.271 E17.47929
G1 X114.038 Y116.481 E17.5505
G1 X113.46 Y116.614 E17.62167
G1 X112.891 Y116.668 E17.69026
G1 X110.801 Y116.73 E17.94117
G1 X110.209 Y116.708 E18.01226
G1 X109.612 Y116.603 E18.085
G1 X108.866 Y116.418 E18.17723
G1 X108.301 Y116.236 E18.24846
G1 X107.766 Y115.981 E18.31958
G1 X107.27 Y115.656 E18.39074
G1 X106.823 Y115.267 E18.46184
G1 X106.431 Y114.822 E18.53301
G1 X106.103 Y114.328 E18.60417
G1 X105.845 Y113.794 E18.67533
G1 X105.687 Y113.331 E18.73404
G1 X105.532 Y112.776 E18.80319
G1 X105.412 Y112.195 E18.87438
G1 X105.37 Y111.603 E18.9456
G1 X105.418 Y110.942 E19.02513
G1 X105.538 Y110.139 E19.12256
G1 X105.665 Y109.559 E19.1938
G1 X105.869 Y109.003 E19.26487
G1 X106.146 Y108.478 E19.33611
G1 X106.49 Y107.996 E19.40717
G1 X107.086 Y107.398 E19.50848
G1 X107.242 Y107.269 E19.53277
G0 F4500 X107.497 Y107.577
G1 F1800 X107.957 Y107.249 E19.60057
G1 X108.459 Y106.988 E19.66846
G1 X108.992 Y106.801 E19.73624
G1 X109.322 Y106.726 E19.77685
G1 X109.887 Y106.622 E19.84579
G1 X110.598 Y106.556 E19.93148
G1 X112.399 Y106.55 E20.1476
G1 X112.963 Y106.588 E20.21543
G1 X113.34 Y106.659 E20.26147
G1 X113.956 Y106.806 E20.33747
G1 X114.496 Y106.976 E20.4054
G1 X115.006 Y107.22 E20.47324
G1 X115.476 Y107.534 E20.54107
G1 X115.898 Y107.91 E20.6089
G1 X116.262 Y108.343 E20.67678
G1 X116.561 Y108.822 E20.74454
G1 X116.692 Y109.093 E20.78066
G1 X116.868 Y109.495 E20.83332
G1 X117.058 Y110.027 E20.90111
G1 X117.17 Y110.581 E20.96893
G1 X117.201 Y110.953 E21.01373
G1 X117.221 Y111.501 E21.07953
G1 X117.202 Y112.066 E21.14737
G1 X117.078 Y112.719 E21.22713
G1 X116.947 Y113.19 E21.2858
G1 X116.757 Y113.722 E21.35359
G1 X116.494 Y114.223 E21.42149
G1 X116.164 Y114.681 E21.48923
G1 X115.772 Y115.089 E21.55712
G1 X115.326 Y115.437 E21.62501
G1 X114.758 Y115.755 E21.70312
G1 X114.426 Y115.907 E21.74694
G1 X113.897 Y116.105 E21.81472
G1 X113.345 Y116.227 E21.88256
G1 X112.88 Y116.268 E21.93857
G1 X110.79 Y116.33 E22.18948
G1 X110.225 Y116.307 E22.25734
G1 X109.708 Y116.214 E22.32038
G1 X108.962 Y116.029 E22.41261
G1 X108.424 Y115.855 E22.48046
G1 X107.917 Y115.606 E22.54824
G1 X107.449 Y115.289 E22.61607
G1 X107.031 Y114.908 E22.68394
G1 X106.671 Y114.473 E22.7517
G1 X106.375 Y113.991 E22.81958
G1 X106.072 Y113.223 E22.91865
G1 X105.917 Y112.668 E22.9878
G1 X105.804 Y112.114 E23.05565
G1 X105.77 Y111.55 E23.12345
G1 X105.814 Y111.001 E23.18954
G1 X105.934 Y110.198 E23.28697
G1 X106.057 Y109.646 E23.35484
G1 X106.256 Y109.117 E23.42266
G1 X106.528 Y108.621 E23.49054
G1 X106.867 Y108.169 E23.55834
G1 X107.341 Y107.706 E23.63785
G1 X107.497 Y107.577 E23.66214
G0 F4500 X107.596 Y108.015
G1 F1800 X107.752 Y107.886 E23.68644
G1 X108.189 Y107.576 E23.75073
G1 X108.668 Y107.334 E23.81513
G1 X109.394 Y107.119 E23.90599
G1 X109.959 Y107.015 E23.97493
G1 X110.599 Y106.956 E24.05205
G1 X112.4 Y106.95 E24.26818
G1 X112.935 Y106.988 E24.33254
G1 X113.248 Y107.048 E24.37078
G1 X113.864 Y107.195 E24.44678
G1 X114.375 Y107.358 E24.51114
G1 X114.856 Y107.595 E24.57549
G1 X115.296 Y107.901 E24.6398
G1 X115.686 Y108.269 E24.70415
G1 X116.017 Y108.691 E24.7685
G1 X116.326 Y109.253 E24.84547
G1 X116.502 Y109.655 E24.89813
G1 X116.68 Y110.161 E24.96249
G1 X116.78 Y110.688 E25.02686
G1 X116.802 Y110.968 E25.06057
G1 X116.822 Y111.516 E25.12637
G1 X116.801 Y112.052 E25.19074
G1 X116.692 Y112.612 E25.2592
G1 X116.561 Y113.083 E25.31787
G1 X116.38 Y113.587 E25.38213
G1 X116.125 Y114.059 E25.44651
G1 X115.803 Y114.488 E25.51087
G1 X115.421 Y114.864 E25.57519
G1 X114.987 Y115.18 E25.63962
G1 X114.592 Y115.391 E25.69336
G1 X114.26 Y115.543 E25.73717
G1 X113.757 Y115.73 E25.80157
G1 X113.232 Y115.839 E25.86591
G1 X112.868 Y115.868 E25.90973
G1 X110.778 Y115.93 E26.16064
G1 X110.242 Y115.906 E26.22503
G1 X109.804 Y115.826 E26.27845
G1 X109.058 Y115.641 E26.37069
G1 X108.549 Y115.474 E26.43497
G1 X108.07 Y115.232 E26.49937
G1 X107.632 Y114.923 E26.56369
G1 X107.245 Y114.551 E26.62811
G1 X106.918 Y114.126 E26.69246
G1 X106.657 Y113.658 E26.75676
G1 X106.458 Y113.115 E26.82616
G1 X106.303 Y112.56 E26.89531
G1 X106.197 Y112.035 E26.95958
G1 X106.171 Y111.499 E27.02397
G1 X106.21 Y111.06 E27.07686
G1 X106.33 Y110.257 E27.17429
G1 X106.448 Y109.734 E27.23863
G1 X106.643 Y109.234 E27.30303
G1 X106.91 Y108.769 E27.36737
G1 X107.243 Y108.349 E27.43169
G1 X107.596 Y108.015 E27.49001
G0 F4500 X107.851 Y108.323
G1 F1800 X108.007 Y108.194 E27.5143
G1 X108.421 Y107.904 E27.57496
G1 X108.875 Y107.682 E27.6356
G1 X109.467 Y107.513 E27.70948
G1 X110.032 Y107.409 E27.77842
G1 X110.6 Y107.356 E27.84687
G1 X112.401 Y107.35 E28.063
G1 X112.905 Y107.388 E28.12365
G1 X113.155 Y107.437 E28.15422
G1 X113.771 Y107.584 E28.23021
G1 X114.252 Y107.74 E28.29089
G1 X114.702 Y107.97 E28.35154
G1 X115.111 Y108.268 E28.41226
G1 X115.467 Y108.626 E28.47285
G1 X115.763 Y109.036 E28.53353
G1 X115.959 Y109.414 E28.58463
G1 X116.135 Y109.816 E28.63729
G1 X116.301 Y110.293 E28.69789
G1 X116.402 Y110.982 E28.78146
G1 X116.422 Y111.53 E28.84726
G1 X116.4 Y112.035 E28.90792
G1 X116.307 Y112.504 E28.9653
G1 X116.176 Y112.975 E29.02396
G1 X116.002 Y113.45 E29.08466
G1 X115.756 Y113.892 E29.14537
G1 X115.444 Y114.289 E29.20596
G1 X115.072 Y114.632 E29.26668
G1 X114.652 Y114.913 E29.32732
G1 X114.425 Y115.028 E29.35785
G1 X114.093 Y115.18 E29.40167
G1 X113.618 Y115.353 E29.46233
G1 X113.122 Y115.45 E29.52298
G1 X112.856 Y115.469 E29.55498
G1 X110.766 Y115.531 E29.80589
G1 X110.261 Y115.506 E29.86657
G1 X109.901 Y115.438 E29.91053
G1 X109.155 Y115.253 E30.00276
G1 X108.675 Y115.093 E30.06348
G1 X108.227 Y114.859 E30.12413
G1 X107.821 Y114.558 E30.18478
G1 X107.467 Y114.196 E30.24554
G1 X107.175 Y113.784 E30.30613
G1 X106.952 Y113.33 E30.36683
G1 X106.843 Y113.008 E30.40763
G1 X106.688 Y112.453 E30.47677
G1 X106.591 Y111.957 E30.53742
G1 X106.573 Y111.451 E30.59818
G1 X106.605 Y111.119 E30.6382
G1 X106.725 Y110.316 E30.73563
G1 X106.839 Y109.823 E30.79636
G1 X107.029 Y109.355 E30.85697
G1 X107.291 Y108.922 E30.9177
G1 X107.617 Y108.536 E30.97833
G1 X107.851 Y108.323 E31.0163
G10
G0 F4500 X110.079 Y109.951
G0 X110.416 Y111.205
G0 X110.437 Y111.27
G0 X110.427 Y111.171
;TYPE:WALL-INNER
G11
G1 F1800 X110.818 Y111.125 E31.06354
G1 X111.149 Y111.111 E31.1033
G1 X111.852 Y111.111 E31.18766
G1 X112.23 Y111.127 E31.23306
G1 X112.572 Y111.171 E31.27444
G1 X112.61 Y111.175 E31.27902
G1 X112.635 Y111.257 E31.28931
G1 X112.647 Y111.496 E31.31803
G1 X112.641 Y111.534 E31.32264
G1 X112.614 Y111.697 E31.34247
G1 X112.182 Y111.75 E31.3947
G1 X111.851 Y111.764 E31.43445
G1 X111.148 Y111.764 E31.51881
G1 X110.77 Y111.748 E31.56421
G1 X110.386 Y111.699 E31.61067
G1 X110.359 Y111.538 E31.63026
G1 X110.354 Y111.502 E31.63462
G1 X110.366 Y111.257 E31.66405
G1 X110.391 Y111.175 E31.67434
G1 X110.427 Y111.171 E31.67869
G0 F4500 X110.786 Y110.726
;TYPE:WALL-OUTER
G1 F1800 X111.132 Y110.711 E31.72025
G1 X111.868 Y110.711 E31.80857
G1 X112.257 Y110.727 E31.85529
G1 X112.663 Y110.776 E31.90436
G1 X112.869 Y110.831 E31.92995
G1 X112.934 Y110.864 E31.93869
G1 X113.031 Y111.187 E31.97916
G1 X113.049 Y111.521 E32.0193
G1 X112.994 Y111.854 E32.0598
G1 X112.935 Y112.008 E32.07959
G1 X112.869 Y112.044 E32.08861
G1 X112.662 Y112.099 E32.11432
G1 X112.214 Y112.149 E32.16841
G1 X111.868 Y112.164 E32.20997
G1 X111.132 Y112.164 E32.29829
G1 X110.743 Y112.148 E32.34501
G1 X110.337 Y112.099 E32.39408
G1 X110.131 Y112.044 E32.41967
G1 X110.066 Y112.012 E32.42836
G1 X110.006 Y111.854 E32.44864
G1 X109.952 Y111.523 E32.48889
G1 X109.968 Y111.188 E32.52913
G1 X110.072 Y110.86 E32.57043
G1 X110.128 Y110.832 E32.57794
G1 X110.338 Y110.776 E32.60402
G1 X110.786 Y110.726 E32.65811
G0 F4500 X110.879 Y111.445
G1 F1800 X111.436 Y111.436 E32.70507
G1 X111.997 Y111.431 E32.75355
G0 F4500 X112.123 Y111.523
;TIME_ELAPSED:13.559414
;LAYER:1
M106 S255
G0 F5250 X112.305 Y111.523 Z.5
;TYPE:WALL-INNER
G1 F1050 X112.279 Y111.287 E32.77254
G1 X112.272 Y111.224 E32.77761
G1 X112.262 Y111.2 E32.77969
G1 X112.213 Y111.086 E32.78962
G0 X112.272 Y111.086
G1 X112.524 Y111.086 E32.79122
G1 X112.588 Y111.087 E32.79634
G1 X112.949 Y111.098 E32.82524
G1 X113.218 Y111.135 E32.84696
G1 X113.238 Y111.234 E32.85504
G1 X113.248 Y111.505 E32.87673
G1 X113.22 Y111.74 E32.89567
G1 X113.164 Y111.753 E32.90027
G1 X112.913 Y111.779 E32.92045
