;FLAVOR:UltiGCode
;TIME:5073
;MATERIAL:8512
;MATERIAL2:0
;NOZZLE_DIAMETER:0.4
;Generated with Cura_SteamEngine 2.3.0

G21 ;metric values
G90 ;absolute positioning
M82 ;set extruder to absolute mode
M107 ;start with the fan off
M190 S75 ;Heat up bed 
M109 S242 ;Heat up extruder
G28; Home Axis
G29; Z-Probe the bed (requires Z-Probe!)
G1 Z5.0 F8900 ;move the bed up
G1 Z15.0 F100 ;move the platform down 15mm

G1 F12000 X5 Y10 ;Move To Left Bottom
G1 F200 E3 ;extrude 3mm of feed stock
G92 E0 ;zero the extruded length again
G1 F100

;LAYER_COUNT:240
;LAYER:0
M107
G10
G0 F8100 X51.493 Y54.752 Z.3
G0 X51.925 Y54.366
;TYPE:SKIRT
G11
G1 F1800 X52.289 Y54.064 E0.05676
G1 X52.921 Y53.591 E0.15148
G1 X53.598 Y53.185 E0.24621
G1 X54.313 Y52.849 E0.34101
G1 X54.883 Y52.641 E0.41383
G1 X55.63 Y52.401 E0.50798
G1 X56.393 Y52.198 E0.60272
G1 X57.555 Y52.041 E0.74343
G1 X82.366 Y50.571 E3.72597
G1 X83.505 Y50.587 E3.86267
G1 X85.259 Y50.74 E4.07395
G1 X86.041 Y50.848 E4.16868
G1 X87.353 Y51.098 E4.32895
G1 X87.995 Y51.248 E4.40806
G1 X89.153 Y51.572 E4.55236
G1 X89.856 Y51.806 E4.64127
G1 X91.384 Y52.395 E4.83778
G1 X92.223 Y52.777 E4.94841
G1 X93.909 Y53.668 E5.17724
G1 X94.753 Y54.184 E5.29595
G1 X96.328 Y55.292 E5.52703
G1 X97.117 Y55.928 E5.64864
G1 X98.557 Y57.251 E5.8833
G1 X99.22 Y57.94 E5.99804
G1 X100.363 Y59.283 E6.20967
G1 X100.943 Y60.056 E6.32564
G1 X101.98 Y61.635 E6.55233
G1 X102.379 Y62.316 E6.64704
G1 X102.821 Y63.336 E6.78044
G1 X102.943 Y63.684 E6.82469
G1 X103.166 Y64.442 E6.9195
G1 X103.311 Y65.218 E7.01424
G1 X103.378 Y66.005 E7.10902
G1 X103.38 Y66.443 E7.16158
G1 X103.367 Y67.013 E7.23
G1 X103.309 Y67.8 E7.32469
G1 X103.172 Y68.578 E7.41949
G1 X102.957 Y69.338 E7.51427
G1 X102.666 Y70.072 E7.60902
G1 X102.424 Y70.556 E7.67395
G1 X101.854 Y71.606 E7.81732
G1 X101.226 Y72.582 E7.95659
G1 X100.001 Y74.206 E8.2007
G1 X99.274 Y75.04 E8.33346
G1 X97.68 Y76.625 E8.60321
G1 X96.889 Y77.312 E8.72893
G1 X95.521 Y78.348 E8.93486
G1 X94.708 Y78.887 E9.05191
G1 X92.859 Y79.953 E9.30802
G1 X91.935 Y80.408 E9.43162
G1 X90.292 Y81.085 E9.64486
G1 X89.398 Y81.391 E9.75825
G1 X87.585 Y81.892 E9.98396
G1 X86.772 Y82.071 E10.08386
G1 X85.464 Y82.286 E10.24293
G1 X84.586 Y82.379 E10.34888
G1 X82.492 Y82.483 E10.60046
G1 X81.616 Y82.478 E10.70559
G1 X57.204 Y80.946 E13.64079
G1 X56.42 Y80.856 E13.73549
G1 X55.648 Y80.688 E13.8303
G1 X54.898 Y80.443 E13.92498
G1 X54.155 Y80.113 E14.02253
G1 X53.538 Y79.799 E14.10561
G1 X52.853 Y79.405 E14.20044
G1 X52.212 Y78.945 E14.29512
G1 X51.62 Y78.422 E14.38991
G1 X51.296 Y78.084 E14.44609
G1 X50.978 Y77.733 E14.50293
G1 X50.478 Y77.122 E14.59767
G1 X50.042 Y76.463 E14.69249
G1 X49.675 Y75.764 E14.78723
G1 X49.457 Y75.24 E14.85533
G1 X49.165 Y74.463 E14.95494
G1 X48.925 Y73.711 E15.04966
G1 X48.762 Y72.938 E15.14446
G1 X48.678 Y72.153 E15.2392
G1 X48.666 Y71.714 E15.2919
G1 X48.673 Y61.273 E16.54482
G1 X48.714 Y60.484 E16.63963
G1 X48.834 Y59.704 E16.73433
G1 X49.034 Y58.933 E16.82991
G1 X49.197 Y58.416 E16.89496
G1 X49.472 Y57.675 E16.98981
G1 X49.821 Y56.967 E17.08453
G1 X50.205 Y56.348 E17.17194
G1 X50.474 Y55.956 E17.22899
G1 X50.953 Y55.328 E17.32377
G1 X51.493 Y54.752 E17.41852
G1 X51.925 Y54.366 E17.48804
G0 F8100 X52.18 Y54.674
G1 F1800 X52.544 Y54.372 E17.54479
G1 X53.161 Y53.912 E17.63714
G1 X53.822 Y53.519 E17.72943
G1 X54.52 Y53.197 E17.82167
G1 X55.005 Y53.022 E17.88354
G1 X55.752 Y52.782 E17.97769
G1 X56.496 Y52.585 E18.07005
G1 X57.578 Y52.44 E18.20105
G1 X82.389 Y50.97 E21.18359
G1 X83.47 Y50.985 E21.31333
G1 X85.224 Y51.138 E21.5246
G1 X85.966 Y51.241 E21.6145
G1 X87.278 Y51.491 E21.77477
G1 X87.887 Y51.634 E21.84984
G1 X89.045 Y51.958 E21.99414
G1 X89.713 Y52.179 E22.07857
G1 X91.241 Y52.768 E22.27508
G1 X92.037 Y53.13 E22.38001
G1 X93.723 Y54.021 E22.60885
G1 X94.523 Y54.512 E22.72149
G1 X96.098 Y55.62 E22.95257
G1 X96.847 Y56.223 E23.06796
G1 X98.287 Y57.546 E23.30262
G1 X98.915 Y58.199 E23.41133
G1 X100.058 Y59.542 E23.62296
G1 X100.608 Y60.276 E23.73302
G1 X101.645 Y61.855 E23.95971
G1 X102.034 Y62.519 E24.05206
G1 X102.443 Y63.469 E24.17618
G1 X102.565 Y63.817 E24.22043
G1 X102.782 Y64.555 E24.31274
G1 X102.92 Y65.311 E24.40496
G1 X102.98 Y66.434 E24.53991
G1 X102.967 Y67.004 E24.60833
G1 X102.91 Y67.771 E24.70062
G1 X102.773 Y68.528 E24.79293
G1 X102.558 Y69.266 E24.88518
G1 X102.268 Y69.979 E24.97754
G1 X102.073 Y70.365 E25.02944
G1 X101.503 Y71.415 E25.17281
G1 X100.907 Y72.341 E25.30495
G1 X99.682 Y73.965 E25.54906
G1 X98.992 Y74.756 E25.67502
G1 X97.398 Y76.341 E25.94477
G1 X96.648 Y76.993 E26.06402
G1 X95.28 Y78.029 E26.26994
G1 X94.508 Y78.541 E26.3811
G1 X92.659 Y79.607 E26.63722
G1 X91.782 Y80.038 E26.75448
G1 X90.139 Y80.715 E26.96772
G1 X89.291 Y81.006 E27.07531
G1 X87.478 Y81.507 E27.30102
G1 X86.707 Y81.676 E27.39574
G1 X85.399 Y81.891 E27.5548
G1 X84.566 Y81.98 E27.65533
G1 X82.472 Y82.084 E27.90692
G1 X81.642 Y82.078 E28.00652
G1 X57.23 Y80.546 E30.94173
G1 X56.465 Y80.458 E31.03413
G1 X55.715 Y80.292 E31.12631
G1 X54.985 Y80.048 E31.21867
G1 X54.337 Y79.756 E31.30396
G1 X53.72 Y79.442 E31.38704
G1 X53.053 Y79.058 E31.4794
G1 X52.43 Y78.607 E31.57169
G1 X51.592 Y77.815 E31.71006
G1 X51.274 Y77.464 E31.76689
G1 X50.788 Y76.868 E31.85918
G1 X50.366 Y76.225 E31.95147
G1 X50.014 Y75.541 E32.04378
G1 X49.831 Y75.099 E32.10119
G1 X49.539 Y74.322 E32.20079
G1 X49.306 Y73.589 E32.29309
G1 X49.151 Y72.836 E32.38534
G1 X49.066 Y71.714 E32.52037
G1 X49.073 Y61.273 E33.77329
G1 X49.113 Y60.505 E33.86558
G1 X49.233 Y59.745 E33.95791
G1 X49.415 Y59.053 E34.04377
G1 X49.578 Y58.536 E34.10882
G1 X49.848 Y57.815 E34.20121
G1 X50.19 Y57.127 E34.29341
G1 X50.534 Y56.574 E34.37156
G1 X50.803 Y56.182 E34.42861
G1 X51.271 Y55.571 E34.52096
G1 X51.799 Y55.012 E34.61324
G1 X52.18 Y54.674 E34.67435
G0 F8100 X52.435 Y54.982
G1 F1800 X52.799 Y54.68 E34.73111
G1 X53.4 Y54.234 E34.82092
G1 X54.044 Y53.854 E34.91065
G1 X54.726 Y53.545 E35.0005
G1 X55.128 Y53.403 E35.05166
G1 X55.875 Y53.163 E35.14581
G1 X56.598 Y52.972 E35.23555
G1 X57.602 Y52.839 E35.35708
G1 X82.413 Y51.369 E38.33962
G1 X83.435 Y51.383 E38.46227
G1 X85.189 Y51.536 E38.67355
G1 X85.891 Y51.634 E38.75861
G1 X87.203 Y51.884 E38.91888
G1 X87.779 Y52.019 E38.98988
G1 X88.937 Y52.343 E39.13417
G1 X89.569 Y52.552 E39.21405
G1 X91.097 Y53.141 E39.41056
G1 X91.85 Y53.484 E39.50986
G1 X93.536 Y54.375 E39.73869
G1 X94.293 Y54.839 E39.84524
G1 X95.868 Y55.947 E40.07632
G1 X96.576 Y56.517 E40.18539
G1 X98.016 Y57.84 E40.42005
G1 X98.611 Y58.458 E40.523
G1 X99.754 Y59.801 E40.73462
G1 X100.274 Y60.495 E40.83869
G1 X101.311 Y62.074 E41.06538
G1 X101.688 Y62.721 E41.15523
G1 X102.066 Y63.601 E41.27016
G1 X102.188 Y63.949 E41.31442
G1 X102.397 Y64.667 E41.40415
G1 X102.529 Y65.404 E41.494
G1 X102.58 Y66.425 E41.61667
G1 X102.567 Y66.995 E41.68509
G1 X102.51 Y67.74 E41.77475
G1 X102.374 Y68.476 E41.86457
G1 X102.16 Y69.193 E41.95436
G1 X101.721 Y70.175 E42.08344
G1 X101.151 Y71.225 E42.2268
G1 X100.587 Y72.1 E42.35173
G1 X99.362 Y73.724 E42.59583
G1 X98.71 Y74.473 E42.715
G1 X97.116 Y76.058 E42.98474
G1 X96.406 Y76.674 E43.09754
G1 X95.038 Y77.71 E43.30346
G1 X94.308 Y78.194 E43.40857
G1 X92.459 Y79.26 E43.66468
G1 X91.63 Y79.668 E43.77556
G1 X89.987 Y80.345 E43.9888
G1 X89.184 Y80.62 E44.09065
G1 X87.371 Y81.121 E44.31637
G1 X86.642 Y81.281 E44.40593
G1 X85.334 Y81.496 E44.565
G1 X84.546 Y81.58 E44.66009
G1 X82.452 Y81.684 E44.91168
G1 X81.667 Y81.679 E45.00588
G1 X57.255 Y80.147 E47.94109
G1 X56.512 Y80.061 E48.03084
G1 X55.782 Y79.895 E48.12068
G1 X55.074 Y79.653 E48.21046
G1 X54.518 Y79.4 E48.28377
G1 X53.901 Y79.086 E48.36684
G1 X53.253 Y78.711 E48.45668
G1 X52.65 Y78.27 E48.54633
G1 X51.888 Y77.547 E48.67238
G1 X51.57 Y77.196 E48.72922
G1 X51.098 Y76.615 E48.81904
G1 X50.691 Y75.988 E48.90875
G1 X50.353 Y75.321 E48.99848
G1 X50.205 Y74.958 E49.04552
G1 X49.913 Y74.181 E49.14512
G1 X49.688 Y73.468 E49.23484
G1 X49.54 Y72.735 E49.32458
G1 X49.466 Y71.714 E49.44742
G1 X49.473 Y61.273 E50.70034
G1 X49.513 Y60.526 E50.79011
G1 X49.633 Y59.788 E50.87983
G1 X49.797 Y59.173 E50.95621
G1 X49.96 Y58.656 E51.02126
G1 X50.223 Y57.956 E51.11099
G1 X50.559 Y57.287 E51.20083
G1 X50.864 Y56.8 E51.26978
G1 X51.133 Y56.408 E51.32684
G1 X51.589 Y55.815 E51.4166
G1 X52.105 Y55.274 E51.50632
G1 X52.435 Y54.982 E51.55919
G0 F8100 X52.691 Y55.29
G1 F1800 X53.055 Y54.988 E51.61595
G1 X53.638 Y54.555 E51.70309
G1 X54.266 Y54.19 E51.79026
G1 X55.25 Y53.783 E51.91804
G1 X55.997 Y53.543 E52.01219
G1 X56.7 Y53.36 E52.09936
G1 X57.626 Y53.239 E52.21143
G1 X82.437 Y51.769 E55.19397
G1 X83.401 Y51.782 E55.30966
G1 X85.155 Y51.935 E55.52094
G1 X85.816 Y52.027 E55.60102
G1 X87.128 Y52.277 E55.7613
G1 X87.671 Y52.404 E55.82822
G1 X88.829 Y52.728 E55.97251
G1 X89.425 Y52.926 E56.04788
G1 X90.953 Y53.515 E56.24439
G1 X91.663 Y53.838 E56.33799
G1 X93.349 Y54.729 E56.56682
G1 X94.062 Y55.166 E56.66718
G1 X95.637 Y56.274 E56.89826
G1 X96.305 Y56.812 E57.00118
G1 X97.745 Y58.135 E57.23584
G1 X98.306 Y58.717 E57.33285
G1 X99.449 Y60.06 E57.54447
G1 X99.94 Y60.715 E57.6427
G1 X100.977 Y62.294 E57.86939
G1 X101.341 Y62.922 E57.9565
G1 X101.688 Y63.733 E58.06235
G1 X101.81 Y64.081 E58.1066
G1 X102.013 Y64.779 E58.19383
G1 X102.137 Y65.495 E58.28103
G1 X102.18 Y66.415 E58.39155
G1 X102.167 Y66.985 E58.45997
G1 X102.111 Y67.71 E58.54723
G1 X101.975 Y68.423 E58.63433
G1 X101.762 Y69.118 E58.72156
G1 X101.369 Y69.984 E58.83568
G1 X100.799 Y71.034 E58.97905
G1 X100.268 Y71.86 E59.09688
G1 X99.043 Y73.484 E59.34099
G1 X98.428 Y74.189 E59.45325
G1 X96.834 Y75.774 E59.723
G1 X96.165 Y76.355 E59.82933
G1 X94.797 Y77.391 E60.03525
G1 X94.108 Y77.848 E60.13447
G1 X92.259 Y78.914 E60.39058
G1 X91.477 Y79.298 E60.49512
G1 X89.834 Y79.975 E60.70837
G1 X89.078 Y80.235 E60.8043
G1 X87.265 Y80.736 E61.03002
G1 X86.577 Y80.887 E61.11454
G1 X85.269 Y81.102 E61.27361
G1 X84.526 Y81.181 E61.36327
G1 X82.432 Y81.285 E61.61486
G1 X81.692 Y81.28 E61.70366
G1 X57.28 Y79.748 E64.63886
G1 X56.558 Y79.663 E64.7261
G1 X55.851 Y79.499 E64.8132
G1 X55.165 Y79.258 E64.90045
G1 X54.7 Y79.043 E64.96192
G1 X54.083 Y78.729 E65.045
G1 X53.454 Y78.365 E65.13221
G1 X52.87 Y77.933 E65.21938
G1 X52.185 Y77.278 E65.33311
G1 X51.867 Y76.927 E65.38994
G1 X51.41 Y76.363 E65.47705
G1 X51.017 Y75.752 E65.56423
G1 X50.58 Y74.818 E65.68797
G1 X50.288 Y74.041 E65.78758
G1 X50.07 Y73.348 E65.87476
G1 X49.93 Y72.635 E65.96195
G1 X49.866 Y71.715 E66.07262
G1 X49.873 Y61.274 E67.32554
G1 X49.913 Y60.548 E67.41279
G1 X50.033 Y59.832 E67.49991
G1 X50.178 Y59.293 E67.56689
G1 X50.341 Y58.776 E67.63194
G1 X50.598 Y58.097 E67.71906
G1 X50.927 Y57.449 E67.80627
G1 X51.194 Y57.027 E67.86619
G1 X51.463 Y56.635 E67.92324
G1 X51.906 Y56.059 E68.01044
G1 X52.41 Y55.536 E68.0976
G1 X52.691 Y55.29 E68.14241
G0 F8100 X52.946 Y55.597
G1 F1800 X53.31 Y55.295 E68.19917
G1 X53.877 Y54.877 E68.2837
G1 X54.487 Y54.526 E68.36816
G1 X55.373 Y54.164 E68.48301
G1 X56.12 Y53.924 E68.57716
G1 X56.801 Y53.747 E68.6616
G1 X57.649 Y53.638 E68.76419
G1 X82.46 Y52.168 E71.74673
G1 X83.366 Y52.18 E71.85546
G1 X85.12 Y52.333 E72.06674
G1 X85.742 Y52.42 E72.14211
G1 X87.054 Y52.67 E72.30238
G1 X87.564 Y52.789 E72.36523
G1 X88.722 Y53.113 E72.50952
G1 X89.281 Y53.299 E72.58022
G1 X90.809 Y53.888 E72.77673
G1 X91.476 Y54.191 E72.86464
G1 X93.162 Y55.082 E73.09348
G1 X93.832 Y55.493 E73.1878
G1 X95.407 Y56.601 E73.41888
G1 X96.035 Y57.106 E73.51558
G1 X97.475 Y58.429 E73.75024
G1 X98.002 Y58.977 E73.84148
G1 X99.145 Y60.32 E74.0531
G1 X99.605 Y60.935 E74.14526
G1 X100.642 Y62.514 E74.37195
G1 X100.995 Y63.123 E74.45642
G1 X101.311 Y63.866 E74.55331
G1 X101.433 Y64.214 E74.59756
G1 X101.628 Y64.89 E74.68199
G1 X101.745 Y65.585 E74.76656
G1 X101.78 Y66.406 E74.86517
G1 X101.767 Y66.976 E74.93359
G1 X101.711 Y67.678 E75.0181
G1 X101.576 Y68.369 E75.10258
G1 X101.364 Y69.04 E75.18703
G1 X101.018 Y69.793 E75.28647
G1 X100.448 Y70.843 E75.42984
G1 X99.949 Y71.619 E75.54055
G1 X98.724 Y73.243 E75.78466
G1 X98.146 Y73.905 E75.89011
G1 X96.552 Y75.49 E76.15986
G1 X95.923 Y76.037 E76.25989
G1 X94.555 Y77.073 E76.46581
G1 X93.909 Y77.501 E76.5588
G1 X92.06 Y78.567 E76.81492
G1 X91.325 Y78.928 E76.91318
G1 X89.682 Y79.605 E77.12642
G1 X88.971 Y79.849 E77.21663
G1 X87.158 Y80.35 E77.44234
G1 X86.513 Y80.492 E77.5216
G1 X85.205 Y80.707 E77.68066
G1 X84.507 Y80.781 E77.76489
G1 X82.413 Y80.885 E78.01648
G1 X81.717 Y80.881 E78.1
G1 X57.305 Y79.349 E81.0352
G1 X56.606 Y79.265 E81.11969
G1 X55.921 Y79.102 E81.20418
G1 X55.259 Y78.863 E81.28864
G1 X54.881 Y78.687 E81.33868
G1 X54.264 Y78.373 E81.42175
G1 X53.656 Y78.018 E81.50624
G1 X53.091 Y77.597 E81.59079
G1 X52.481 Y77.01 E81.69238
G1 X52.163 Y76.659 E81.74922
G1 X51.721 Y76.111 E81.8337
G1 X51.344 Y75.517 E81.91812
G1 X50.954 Y74.677 E82.02926
G1 X50.662 Y73.9 E82.12887
G1 X50.452 Y73.228 E82.21335
G1 X50.32 Y72.537 E82.29777
G1 X50.266 Y71.715 E82.39662
G1 X50.273 Y61.274 E83.64954
G1 X50.313 Y60.571 E83.73404
G1 X50.433 Y59.877 E83.81856
G1 X50.56 Y59.414 E83.87617
G1 X50.723 Y58.897 E83.94122
G1 X50.972 Y58.238 E84.02576
G1 X51.295 Y57.613 E84.11018
G1 X51.524 Y57.253 E84.16138
G1 X51.793 Y56.861 E84.21843
G1 X52.224 Y56.304 E84.30294
G1 X52.946 Y55.597 E84.4242
G0 F8100 X53.202 Y55.905
G1 F1800 X53.566 Y55.603 E84.48096
G1 X54.114 Y55.2 E84.56259
G1 X54.706 Y54.864 E84.64427
G1 X55.495 Y54.545 E84.7464
G1 X56.242 Y54.305 E84.84055
G1 X56.901 Y54.135 E84.92222
G1 X57.673 Y54.037 E85.0156
G1 X82.484 Y52.567 E87.99815
G1 X83.331 Y52.579 E88.0998
G1 X85.085 Y52.732 E88.31107
G1 X85.667 Y52.813 E88.38159
G1 X86.979 Y53.063 E88.54186
G1 X87.456 Y53.175 E88.60066
G1 X88.614 Y53.499 E88.74495
G1 X89.137 Y53.672 E88.81106
G1 X90.665 Y54.261 E89.00757
G1 X91.289 Y54.545 E89.08984
G1 X92.975 Y55.436 E89.31867
G1 X93.602 Y55.82 E89.4069
G1 X95.177 Y56.928 E89.63799
G1 X95.764 Y57.401 E89.72845
G1 X97.204 Y58.724 E89.96311
G1 X97.697 Y59.236 E90.0484
G1 X98.84 Y60.579 E90.26003
G1 X99.271 Y61.154 E90.34626
G1 X100.308 Y62.733 E90.57295
G1 X100.648 Y63.323 E90.65466
G1 X100.933 Y63.998 E90.74259
G1 X101.055 Y64.346 E90.78684
G1 X101.243 Y65.001 E90.86861
G1 X101.352 Y65.673 E90.9503
G1 X101.38 Y66.397 E91.03725
G1 X101.367 Y66.967 E91.10567
G1 X101.312 Y67.646 E91.18741
G1 X101.177 Y68.313 E91.26908
G1 X100.966 Y68.96 E91.35074
G1 X100.666 Y69.602 E91.43578
G1 X100.096 Y70.652 E91.57915
G1 X99.629 Y71.378 E91.68273
G1 X98.404 Y73.002 E91.92684
G1 X97.864 Y73.622 E92.0255
G1 X96.27 Y75.207 E92.29525
G1 X95.682 Y75.718 E92.38873
G1 X94.314 Y76.754 E92.59465
G1 X93.709 Y77.155 E92.68175
G1 X91.86 Y78.221 E92.93787
G1 X91.173 Y78.559 E93.02975
G1 X89.53 Y79.236 E93.24299
G1 X88.865 Y79.463 E93.32731
G1 X87.052 Y79.964 E93.55302
G1 X86.448 Y80.097 E93.62724
G1 X85.14 Y80.312 E93.7863
G1 X84.487 Y80.382 E93.86511
G1 X82.393 Y80.486 E94.1167
G1 X81.742 Y80.482 E94.19482
G1 X57.33 Y78.95 E97.13003
G1 X56.654 Y78.867 E97.21176
G1 X55.992 Y78.706 E97.29351
G1 X55.062 Y78.33 E97.41389
G1 X54.445 Y78.016 E97.49696
G1 X53.858 Y77.672 E97.57861
G1 X53.314 Y77.262 E97.66035
G1 X52.778 Y76.741 E97.75005
G1 X52.46 Y76.39 E97.80689
G1 X52.033 Y75.86 E97.88856
G1 X51.671 Y75.283 E97.9703
G1 X51.329 Y74.536 E98.06889
G1 X51.037 Y73.759 E98.16849
G1 X50.835 Y73.109 E98.25017
G1 X50.711 Y72.44 E98.33182
G1 X50.666 Y71.715 E98.41899
G1 X50.673 Y61.274 E99.67191
G1 X50.713 Y60.594 E99.75365
G1 X50.833 Y59.924 E99.83533
G1 X50.941 Y59.534 E99.88389
G1 X51.104 Y59.017 E99.94894
G1 X51.347 Y58.381 E100.03064
G1 X51.662 Y57.777 E100.11239
G1 X51.854 Y57.479 E100.15493
G1 X52.123 Y57.087 E100.21198
